src/16/mimetypes/text-x-rpm-spec.svg

<svg width="16" xmlns="http://www.w3.org/2000/svg" height="16" viewBox="0 0 16 16">
 <path fill="#cf000f" color="#000000" stroke-width="1.4" d="m2 2v1h6v-1zm0 3v1h12v-1zm0 3v1h5v-1zm7 0v3h-1v.016l2.984 2.984h.031l2.984-2.984v-.016h-1v-3zm1 1h2v2h.6l-1.6 1.602-1.6-1.602h.6zm-8 1v1h3v-1zm0 3v1h5v-1z"/>
</svg>

<svg width="16" xmlns="http://www.w3.org/2000/svg" height="16"><path fill="#cf000f" color="#000" stroke-width="1.4" d="M2 2v1h6V2zm0 3v1h12V5zm0 3v1h5V8zm7 0v3H8v.016L10.984 14h.031l2.984-2.984V11h-1V8zm1 1h2v2h.6L11 12.602 9.4 11h.6zm-8 1v1h3v-1zm0 3v1h5v-1z"/></svg>
